X:1
T:King Of Meenasillagh, The
R:reel
M:4/4
L:1/8
K:Dmaj
|:AFED [EC]DEG|(3FED AD BdcB|AFED [EC]DEG|1FGEF DcdB:|2FGEF Dfed||
cA (3AAA fAec|Acec dcBc|Acec Acea|fdBc dfed|
cA (3AAA fAec|Acec dcBc|defd cdec|Bcde fdBd||
